X:1
T:By and By
T:By and By
T:Philip Paul Bliss
T:Eben Eugene Rexford, 1871
T:Public Domain Courtesy of the Cyber Hymnal™
T:Public Domain Courtesy of the Cyber Hymnal™
C:Philip Paul Bliss
Z:Public Domain
Z:Courtesy of the Cyber Hymnal™
%%score ( 1 2 ) ( 3 4 )
L:1/8
Q:1/4=108
M:9/8
K:G
V:1 treble 
V:2 treble 
V:3 bass 
V:4 bass 
V:1
 ([B,D][G,B,])[B,D] | [DB]3- [DB]2 [DB] ([CA][B,G])[CE] | [CE]3 [B,D]3 (D-[DE])D | %3
w: 1.~By * and|by * we shall * know|Je- sus, by * and|
w: 2.~By * and|by * we shall * be|stand- ing, by * and|
w: 3.~By * and|by! * we say * it|gent- ly, look- * ing|
 [DA]3 [Dc]3 (ce)[Dd] | [DB]6 ([B,D][G,B,])[B,D] | [DB]3- [DB]2 [DB] ([CA][B,G])[CE] | %6
w: by, oh, by * and|by; E- * ven|now * He looks * and|
w: by, oh, by * and|by, At * fair|Heav- * en’s shin- * ing|
w: on our peace- * ful|dead, And * we|do * not think * of|
 [CE]3 [B,D]3 D-[DE]D | [DA]3 [Dc]3 (cB)[CA] [B,G]6 ||[K:D] ([DF][EG])[^E^G] | %9
w: sees us, journey- * ing|toward His home * on high.|And * He|
w: land- ing, while * the|riv- er mur- * murs by,|And * our|
w: earth life, but * of|Heaven’s sweet life * in- stead.|By * and|
 [FA]3 [Fd]3 ([Fd][Ac])[GB] | [GB]3 [FA]3 ([FA][EG])[DF] | [CE]3 [EG]3 ([EG][GB])[FA] | %12
w: smiles up- on * us,|say- ing, “By * and|by, oh, by * and|
w: friends will round * us|ga- ther, by * and|by, oh, by * and|
w: by we all * shall|ga- ther, by * and|by, oh, by * and|
 [DF]6 ([DF][EG])[^E^G] | [FA]3 [Fd]3 ([Fd][Ac])[GB] | [GB]3 [FA]3 ([FA][EG])[DF] | %15
w: by, Cares * and|tri- als you’ll * be|lay- ing with * your|
w: by, Say- * ing|“Wel- come, for * the|Fa- ther loves * to|
w: by, In * the|life of God * our|Fa- ther that * shall|
 [CE]3 [EG]3 ([EG][DF])[CE] | (D3 [=CD]3) ||"^Refrain" ([B,D][G,B,])[B,D] | %18
w: earth- ly gar- * ments|by.” *||
w: have His child- * ren|nigh.” *|Oh~by * and|
w: know no by * and|by. *||
 [DB]3- [DB]2 [DB] ([CA][B,G])[CE] | [CE]3 [B,D]3 (D-[DE])D | [DA]3 [Dc]3 (ce)[Dd] | %21
w: |||
w: by, * oh sing * it|soft- ly, Think- * ing|not of earth- * ly|
w: |||
 [DB]6 ([B,D][G,B,])[B,D] | [DB]3- [DB]2 [DB] ([CA][B,G])[CE] | [CE]3 [B,D]3 D-[DE]D | %24
w: |||
w: care, But * the|by * and by * of|Heav- en Wait- * ing|
w: |||
 [DA]3 [Dc]3 (cB)[CA] | [B,G]6 |] %26
w: ||
w: for us o- * ver|there.|
w: ||
V:2
 x3 | x9 | x8 D | x6 D2 x | x9 | x9 | x9 | x6 D2 x7 ||[K:D] x3 | x9 | x9 | x9 | x9 | x9 | x9 | x9 | %16
 x6 || x3 | x9 | x8 D | x6 D2 x | x9 | x9 | x9 | x6 D2 x | x6 |] %26
V:3
 (G,D,)[G,,G,] | [G,,G,]3- [G,,G,]2 [G,,G,] [G,,G,]2 [G,,G,] | [G,,G,]3 [G,,G,]3 (F,G,)[D,F,] | %3
 [D,F,]3 [D,A,]3 (A,C)[D,B,] | G,6 (G,D,)[G,,G,] | [G,,G,]3- [G,,G,]2 [G,,G,] [G,,G,]2 [G,,G,] | %6
 [G,,G,]3 [G,,G,]3 (F,G,)[D,F,] | [D,F,]3 [D,A,]3 (A,G,)[D,F,] [G,,G,]6 ||[K:D] (DC)[D,B,] | %9
 [D,A,]3 [D,A,]3 [D,A,]2 (B,/C/) | [D,D]3 [D,A,]3 [A,,A,]2 [A,,A,] | %11
 [A,,A,]3 [A,,A,]3 [A,,A,]2 [A,,A,] | [D,A,]6 (DC)[D,B,] | [D,A,]3 [D,A,]3 [D,A,]2 B,/C/ | %14
 [D,D]3 [D,A,]3 [A,,A,]2 [A,,A,] | [A,,A,]3 [A,,A,]3 [A,,A,]2 [A,,G,] | ([D,F,]3 [D,F,]3) || %17
 (G,D,)[G,,G,] | [G,,G,]3- [G,,G,]2 [G,,G,] [G,,G,]2 [G,,G,] | [G,,G,]3 [G,,G,]3 (F,G,)[D,F,] | %20
 [D,F,]3 [D,A,]3 (A,C)[D,B,] | G,6 (G,D,)[G,,G,] | [G,,G,]3- [G,,G,]2 [G,,G,] [G,,G,]2 [G,,G,] | %23
 [G,,G,]3 [G,,G,]3 (F,G,)[D,F,] | [D,F,]3 [D,A,]3 (A,G,)[D,F,] | [G,,G,]6 |] %26
V:4
 G,,2 x | x9 | x6 D,2 x | x6 D,2 x | G,6 G,,2 x | x9 | x6 D,2 x | x6 D,2 x7 ||[K:D] D,2 x | x8 D, | %10
 x9 | x9 | x6 D,2 x | x8 D, | x9 | x9 | x6 || G,,2 x | x9 | x6 D,2 x | x6 D,2 x | G,6 G,,2 x | x9 | %23
 x6 D,2 x | x6 D,2 x | x6 |] %26

